images/texhere/texhere.svg

<?xml version="1.0" encoding="UTF-8" standalone="no"?>
<svg
   xmlns:dc="http://purl.org/dc/elements/1.1/"
   xmlns:cc="http://creativecommons.org/ns#"
   xmlns:rdf="http://www.w3.org/1999/02/22-rdf-syntax-ns#"
   xmlns:svg="http://www.w3.org/2000/svg"
   xmlns="http://www.w3.org/2000/svg"
   xmlns:xlink="http://www.w3.org/1999/xlink"
   xmlns:sodipodi="http://sodipodi.sourceforge.net/DTD/sodipodi-0.dtd"
   xmlns:inkscape="http://www.inkscape.org/namespaces/inkscape"
   width="192"
   height="192"
   viewBox="0 0 144 144"
   version="1.1"
   id="svg40"
   sodipodi:docname="texhere.svg"
   inkscape:export-filename="/home/npgentry/org/data/cb/109e38-5631-41bf-8665-4c92737551be/tex-math-here-frontend/images/texhere/texhere.32.png"
   inkscape:export-xdpi="16"
   inkscape:export-ydpi="16"
   inkscape:version="0.92.4 (f8dce91, 2019-08-02)">
  <metadata
     id="metadata44">
    <rdf:RDF>
      <cc:Work
         rdf:about="">
        <dc:format>image/svg+xml</dc:format>
        <dc:type
           rdf:resource="http://purl.org/dc/dcmitype/StillImage" />
        <dc:title></dc:title>
      </cc:Work>
    </rdf:RDF>
  </metadata>
  <sodipodi:namedview
     pagecolor="#ffffff"
     bordercolor="#666666"
     borderopacity="1"
     objecttolerance="10"
     gridtolerance="10"
     guidetolerance="10"
     inkscape:pageopacity="0"
     inkscape:pageshadow="2"
     inkscape:window-width="1920"
     inkscape:window-height="1057"
     id="namedview42"
     showgrid="false"
     units="px"
     inkscape:zoom="1.4867078"
     inkscape:cx="64.251999"
     inkscape:cy="79.37"
     inkscape:window-x="0"
     inkscape:window-y="0"
     inkscape:window-maximized="1"
     inkscape:current-layer="svg40" />
  <defs
     id="defs19">
    <g
       id="g14">
      <symbol
         overflow="visible"
         id="glyph0-0"
         style="overflow:visible">
        <path
           style="stroke:none"
           d=""
           id="path2"
           inkscape:connector-curvature="0" />
      </symbol>
      <symbol
         overflow="visible"
         id="glyph0-1"
         style="overflow:visible">
        <path
           style="stroke:none"
           d="M 24.78125,-27.09375 H 1.796875 l -0.6875,8.8125 h 0.71875 c 0.515625,-6.625 1.078125,-7.78125 7.21875,-7.78125 0.71875,0 1.875,0 2.1875,0.04687 C 12,-25.90625 12,-25.421875 12,-24.5 v 21.59375 c 0,1.4375 -0.125,1.875 -3.4375,1.875 H 7.453125 V 0 c 1.90625,-0.046875 3.90625,-0.078125 5.859375,-0.078125 1.953125,0 3.9375,0.03125 5.859375,0.078125 v -1.03125 h -1.125 C 14.75,-1.03125 14.625,-1.46875 14.625,-2.90625 V -24.5 c 0,-0.875 0,-1.359375 0.71875,-1.515625 0.3125,-0.04687 1.46875,-0.04687 2.1875,-0.04687 6.09375,0 6.6875,1.15625 7.21875,7.78125 h 0.703125 z m 0,0"
           id="path5"
           inkscape:connector-curvature="0" />
      </symbol>
      <symbol
         overflow="visible"
         id="glyph0-2"
         style="overflow:visible">
        <path
           style="stroke:none"
           d="m 24.1875,-10.078125 h -0.71875 c -0.875,5.859375 -1.390625,9.046875 -8.40625,9.046875 H 9.515625 c -1.59375,0 -1.671875,-0.203125 -1.671875,-1.5625 v -11 h 3.75 c 3.75,0 4.109375,1.359375 4.109375,4.671875 h 0.71875 V -19.28125 h -0.71875 c 0,3.296875 -0.359375,4.65625 -4.109375,4.65625 h -3.75 v -9.921875 c 0,-1.359375 0.078125,-1.546875 1.671875,-1.546875 h 5.46875 c 6.171875,0 6.890625,2.46875 7.453125,7.765625 h 0.71875 l -0.96875,-8.8125 H 2.03125 v 1.046875 c 2.75,0 3.1875,0 3.1875,1.78125 v 21.484375 c 0,1.796875 -0.4375,1.796875 -3.1875,1.796875 V 0 H 22.75 Z m 0,0"
           id="path8"
           inkscape:connector-curvature="0" />
      </symbol>
      <symbol
         overflow="visible"
         id="glyph0-3"
         style="overflow:visible">
        <path
           style="stroke:none"
           d="m 14.546875,-15.09375 5.890625,-8.5 c 0.59375,-0.828125 1.796875,-2.546875 5.0625,-2.578125 v -1.046875 c -0.921875,0.07813 -2.4375,0.07813 -3.390625,0.07813 -1.3125,0 -2.9375,0 -3.9375,-0.07813 v 1.046875 c 1.265625,0.109375 1.59375,0.90625 1.59375,1.546875 0,0.484375 -0.203125,0.796875 -0.484375,1.203125 l -5.25,7.609375 -5.90625,-8.609375 c -0.28125,-0.4375 -0.3125,-0.5625 -0.3125,-0.6875 0,-0.34375 0.4375,-1.03125 1.75,-1.0625 v -1.046875 c -1.28125,0.07813 -3.234375,0.07813 -4.546875,0.07813 -1.03125,0 -3.015625,0 -3.984375,-0.07813 v 1.046875 c 2.203125,0 2.90625,0.07813 3.796875,1.3125 l 7.6875,11.234375 -6.9375,10.078125 c -1.71875,2.46875 -4.296875,2.515625 -5.0625,2.515625 V 0 c 0.921875,-0.078125 2.4375,-0.078125 3.390625,-0.078125 1.078125,0 2.953125,0 3.9375,0.078125 V -1.03125 C 6.609375,-1.15625 6.25,-1.953125 6.25,-2.59375 c 0,-0.515625 0.203125,-0.796875 0.40625,-1.078125 l 6.375,-9.234375 6.9375,10.109375 c 0.3125,0.453125 0.3125,0.5625 0.3125,0.6875 0,0.3125 -0.359375,1 -1.75,1.078125 V 0 c 1.265625,-0.078125 3.21875,-0.078125 4.53125,-0.078125 1.046875,0 3.03125,0 3.984375,0.078125 v -1.03125 c -2.546875,0 -2.9375,-0.203125 -3.734375,-1.3125 z m 0,0"
           id="path11"
           inkscape:connector-curvature="0" />
      </symbol>
    </g>
    <clipPath
       id="clip1">
      <path
         d="M 0,0 H 96.378906 V 119.05469 H 0 Z m 0,0"
         id="path16"
         inkscape:connector-curvature="0" />
    </clipPath>
  </defs>
  <g
     id="surface1"
     transform="translate(23.809991,12.471952)">
    <g
       clip-path="url(#clip1)"
       id="g23"
       style="clip-rule:nonzero">
      <path
         style="fill:#de1923;fill-opacity:1;fill-rule:evenodd;stroke:none"
         d="m 83.519531,80.957031 c 18.097659,-19.511719 16.949219,-50 -2.5625,-68.097656 -19.511719,-18.097656 -50,-16.953125 -68.097656,2.5625 -17.140625,18.480469 -17.140625,47.054687 0,65.535156 L 48.1875,119.05469"
         id="path21"
         inkscape:connector-curvature="0" />
    </g>
    <path
       style="fill:#ffffff;fill-opacity:1;fill-rule:nonzero;stroke:#000000;stroke-width:0.3985;stroke-linecap:butt;stroke-linejoin:miter;stroke-miterlimit:10;stroke-opacity:1"
       d="m 39.686,0.0015 c 0,19.097656 -17.769531,34.582031 -39.6875,34.582031 -21.917969,0 -39.683594,-15.484375 -39.683594,-34.582031 0,-19.101563 17.765625,-34.585938 39.683594,-34.585938 21.917969,0 39.6875,15.484375 39.6875,34.585938 z m 0,0"
       transform="matrix(1,0,0,-1,48.189,48.189)"
       id="path25"
       inkscape:connector-curvature="0" />
    <g
       style="fill:#000000;fill-opacity:1"
       id="g29">
      <use
         xlink:href="#glyph0-1"
         x="13.886"
         y="60.348"
         id="use27"
         width="100%"
         height="100%" />
    </g>
    <g
       style="fill:#000000;fill-opacity:1"
       id="g33">
      <use
         xlink:href="#glyph0-2"
         x="34.396999"
         y="68.925003"
         id="use31"
         width="100%"
         height="100%" />
    </g>
    <g
       style="fill:#000000;fill-opacity:1"
       id="g37">
      <use
         xlink:href="#glyph0-3"
         x="54.862"
         y="60.348"
         id="use35"
         width="100%"
         height="100%" />
    </g>
  </g>
</svg>

<?xml version="1.0" encoding="UTF-8"?>
<svg xmlns="http://www.w3.org/2000/svg" xmlns:xlink="http://www.w3.org/1999/xlink" width="96.378pt" height="119.055pt" viewBox="0 0 96.378 119.055" version="1.1">
<defs>
<g>
<symbol overflow="visible" id="glyph0-0">
<path style="stroke:none;" d=""/>
</symbol>
<symbol overflow="visible" id="glyph0-1">
<path style="stroke:none;" d="M 24.78125 -27.09375 L 1.796875 -27.09375 L 1.109375 -18.28125 L 1.828125 -18.28125 C 2.34375 -24.90625 2.90625 -26.0625 9.046875 -26.0625 C 9.765625 -26.0625 10.921875 -26.0625 11.234375 -26.015625 C 12 -25.90625 12 -25.421875 12 -24.5 L 12 -2.90625 C 12 -1.46875 11.875 -1.03125 8.5625 -1.03125 L 7.453125 -1.03125 L 7.453125 0 C 9.359375 -0.046875 11.359375 -0.078125 13.3125 -0.078125 C 15.265625 -0.078125 17.25 -0.046875 19.171875 0 L 19.171875 -1.03125 L 18.046875 -1.03125 C 14.75 -1.03125 14.625 -1.46875 14.625 -2.90625 L 14.625 -24.5 C 14.625 -25.375 14.625 -25.859375 15.34375 -26.015625 C 15.65625 -26.0625 16.8125 -26.0625 17.53125 -26.0625 C 23.625 -26.0625 24.21875 -24.90625 24.75 -18.28125 L 25.453125 -18.28125 Z M 24.78125 -27.09375 "/>
</symbol>
<symbol overflow="visible" id="glyph0-2">
<path style="stroke:none;" d="M 24.1875 -10.078125 L 23.46875 -10.078125 C 22.59375 -4.21875 22.078125 -1.03125 15.0625 -1.03125 L 9.515625 -1.03125 C 7.921875 -1.03125 7.84375 -1.234375 7.84375 -2.59375 L 7.84375 -13.59375 L 11.59375 -13.59375 C 15.34375 -13.59375 15.703125 -12.234375 15.703125 -8.921875 L 16.421875 -8.921875 L 16.421875 -19.28125 L 15.703125 -19.28125 C 15.703125 -15.984375 15.34375 -14.625 11.59375 -14.625 L 7.84375 -14.625 L 7.84375 -24.546875 C 7.84375 -25.90625 7.921875 -26.09375 9.515625 -26.09375 L 14.984375 -26.09375 C 21.15625 -26.09375 21.875 -23.625 22.4375 -18.328125 L 23.15625 -18.328125 L 22.1875 -27.140625 L 2.03125 -27.140625 L 2.03125 -26.09375 C 4.78125 -26.09375 5.21875 -26.09375 5.21875 -24.3125 L 5.21875 -2.828125 C 5.21875 -1.03125 4.78125 -1.03125 2.03125 -1.03125 L 2.03125 0 L 22.75 0 Z M 24.1875 -10.078125 "/>
</symbol>
<symbol overflow="visible" id="glyph0-3">
<path style="stroke:none;" d="M 14.546875 -15.09375 L 20.4375 -23.59375 C 21.03125 -24.421875 22.234375 -26.140625 25.5 -26.171875 L 25.5 -27.21875 C 24.578125 -27.140625 23.0625 -27.140625 22.109375 -27.140625 C 20.796875 -27.140625 19.171875 -27.140625 18.171875 -27.21875 L 18.171875 -26.171875 C 19.4375 -26.0625 19.765625 -25.265625 19.765625 -24.625 C 19.765625 -24.140625 19.5625 -23.828125 19.28125 -23.421875 L 14.03125 -15.8125 L 8.125 -24.421875 C 7.84375 -24.859375 7.8125 -24.984375 7.8125 -25.109375 C 7.8125 -25.453125 8.25 -26.140625 9.5625 -26.171875 L 9.5625 -27.21875 C 8.28125 -27.140625 6.328125 -27.140625 5.015625 -27.140625 C 3.984375 -27.140625 2 -27.140625 1.03125 -27.21875 L 1.03125 -26.171875 C 3.234375 -26.171875 3.9375 -26.09375 4.828125 -24.859375 L 12.515625 -13.625 L 5.578125 -3.546875 C 3.859375 -1.078125 1.28125 -1.03125 0.515625 -1.03125 L 0.515625 0 C 1.4375 -0.078125 2.953125 -0.078125 3.90625 -0.078125 C 4.984375 -0.078125 6.859375 -0.078125 7.84375 0 L 7.84375 -1.03125 C 6.609375 -1.15625 6.25 -1.953125 6.25 -2.59375 C 6.25 -3.109375 6.453125 -3.390625 6.65625 -3.671875 L 13.03125 -12.90625 L 19.96875 -2.796875 C 20.28125 -2.34375 20.28125 -2.234375 20.28125 -2.109375 C 20.28125 -1.796875 19.921875 -1.109375 18.53125 -1.03125 L 18.53125 0 C 19.796875 -0.078125 21.75 -0.078125 23.0625 -0.078125 C 24.109375 -0.078125 26.09375 -0.078125 27.046875 0 L 27.046875 -1.03125 C 24.5 -1.03125 24.109375 -1.234375 23.3125 -2.34375 Z M 14.546875 -15.09375 "/>
</symbol>
</g>
<clipPath id="clip1">
  <path d="M 0 0 L 96.378906 0 L 96.378906 119.054688 L 0 119.054688 Z M 0 0 "/>
</clipPath>
</defs>
<g id="surface1">
<g clip-path="url(#clip1)" clip-rule="nonzero">
<path style=" stroke:none;fill-rule:evenodd;fill:rgb(87.841797%,10.978699%,14.118958%);fill-opacity:1;" d="M 83.519531 80.957031 C 101.617188 61.445312 100.46875 30.957031 80.957031 12.859375 C 61.445312 -5.238281 30.957031 -4.09375 12.859375 15.421875 C -4.28125 33.902344 -4.28125 62.476562 12.859375 80.957031 L 48.1875 119.054688 "/>
</g>
<path style="fill-rule:nonzero;fill:rgb(100%,100%,100%);fill-opacity:1;stroke-width:0.3985;stroke-linecap:butt;stroke-linejoin:miter;stroke:rgb(0%,0%,0%);stroke-opacity:1;stroke-miterlimit:10;" d="M 39.686 0.0015 C 39.686 19.099156 21.916469 34.583531 -0.0015 34.583531 C -21.919469 34.583531 -39.685094 19.099156 -39.685094 0.0015 C -39.685094 -19.100063 -21.919469 -34.584438 -0.0015 -34.584438 C 21.916469 -34.584438 39.686 -19.100063 39.686 0.0015 Z M 39.686 0.0015 " transform="matrix(1,0,0,-1,48.189,48.189)"/>
<g style="fill:rgb(0%,0%,0%);fill-opacity:1;">
  <use xlink:href="#glyph0-1" x="13.886" y="60.348"/>
</g>
<g style="fill:rgb(0%,0%,0%);fill-opacity:1;">
  <use xlink:href="#glyph0-2" x="34.397" y="68.925"/>
</g>
<g style="fill:rgb(0%,0%,0%);fill-opacity:1;">
  <use xlink:href="#glyph0-3" x="54.862" y="60.348"/>
</g>
</g>
</svg>
